liblibrary/res/selectall.svg

<?xml version="1.0" encoding="UTF-8" standalone="no"?>
<svg
   id="SVGRoot"
   width="16px"
   height="16px"
   version="1.1"
   viewBox="0 0 16 16"
   xmlns:xlink="http://www.w3.org/1999/xlink"
   xmlns="http://www.w3.org/2000/svg"
   xmlns:svg="http://www.w3.org/2000/svg"
   xmlns:rdf="http://www.w3.org/1999/02/22-rdf-syntax-ns#"
   xmlns:cc="http://creativecommons.org/ns#"
   xmlns:dc="http://purl.org/dc/elements/1.1/">
  <defs
     id="defs24">
    <linearGradient
       id="swatch26">
      <stop
         style="stop-color:#000000;stop-opacity:1;"
         offset="0"
         id="stop26" />
    </linearGradient>
    <linearGradient
       xlink:href="#swatch26"
       id="linearGradient26"
       x1="2.0465162"
       y1="13.967246"
       x2="13.803472"
       y2="13.967246"
       gradientUnits="userSpaceOnUse"
       gradientTransform="translate(-0.34442805,-2.8862827)" />
    <linearGradient
       xlink:href="#swatch26"
       id="linearGradient1"
       gradientUnits="userSpaceOnUse"
       x1="2.0465162"
       y1="13.967246"
       x2="13.803472"
       y2="13.967246"
       gradientTransform="translate(1.3196868,-0.28548218)" />
  </defs>
  <metadata
     id="metadata1">
    <rdf:RDF>
      <cc:Work
         rdf:about="">
        <dc:format>image/svg+xml</dc:format>
        <dc:type
           rdf:resource="http://purl.org/dc/dcmitype/StillImage" />
      </cc:Work>
    </rdf:RDF>
  </metadata>
  <path
     style="fill:#ffffff"
     d="m 13.769204,13.910111 v 0 c 0,0 -0.0088,0.0088 -11.9468514,0.0079 C 1.7407958,5.0281827 1.7407958,5.0281827 1.7407958,5.0281827"
     id="path24" />
  <path
     style="fill:#ffffff"
     d="m 1.8366762,14.020389 c 11.9340808,0.02545 11.9340808,0.02545 11.9340808,0.02545 v 0 0"
     id="path25" />
  <path
     style="fill:#f9f9f9;stroke:url(#linearGradient26);stroke-width:1;stroke-dasharray:none"
     d="m 13.459044,11.052853 c 0,0 0,0 -11.7569558,0.05622 C 1.6579507,2.0898466 1.6579507,2.0898466 1.6579507,2.0898466 13.436732,2.0574704 13.436732,2.0574704 13.436732,2.0574704 c -0.02501,9.1152886 0.02231,8.9953826 0.02231,8.9953826 z"
     id="path26" />
  <path
     style="fill:#f9f9f9;stroke:url(#linearGradient1);stroke-width:1;stroke-dasharray:none"
     d="m 15.123159,13.653654 c 0,0 0,0 -11.756956,0.05622 C 3.3220655,4.6906471 3.3220655,4.6906471 3.3220655,4.6906471 15.100847,4.6582709 15.100847,4.6582709 15.100847,4.6582709 c -0.02501,9.1152891 0.02231,8.9953831 0.02231,8.9953831 z"
     id="path1" />
  <path
     style="opacity:0;fill:#1a1a1a;stroke:#000000;stroke-width:12.6;stroke-dasharray:none;stroke-dashoffset:117.16"
     d="M 5.4803143,6.4876567 C 6.9517092,11.42312 6.9517092,11.42312 6.9517092,11.42312 c 0,0 -0.031118,0.08535 0,0 0.031118,-0.08535 0.031118,-0.08535 0.031118,-0.08535 C 9.6881538,7.3727582 9.6881538,7.3727582 9.6881538,7.3727582"
     id="path3" />
  <path
     style="opacity:1;fill:#f9f9f9;stroke:#000000;stroke-width:0.8;stroke-dasharray:none;stroke-dashoffset:117.16"
     d="M 6.0714903,7.2097982 C 7.5241181,10.905147 7.5241181,10.905147 7.5241181,10.905147 13.094636,7.2197128 13.094636,7.2197128 13.094636,7.2197128"
     id="path4" />
</svg>

<?xml version="1.0" encoding="UTF-8"?>
<svg id="SVGRoot" width="16" height="16" version="1.1" viewBox="0 0 17 17" xmlns="http://www.w3.org/2000/svg" xmlns:cc="http://creativecommons.org/ns#" xmlns:dc="http://purl.org/dc/elements/1.1/" xmlns:rdf="http://www.w3.org/1999/02/22-rdf-syntax-ns#" xmlns:xlink="http://www.w3.org/1999/xlink">
 <defs>
  <linearGradient id="swatch26">
   <stop offset="0"/>
  </linearGradient>
  <linearGradient id="linearGradient26" x1="2.0465" x2="13.803" y1="13.967" y2="13.967" gradientTransform="translate(-.34443 -2.8863)" gradientUnits="userSpaceOnUse" xlink:href="#swatch26"/>
  <linearGradient id="linearGradient1" x1="2.0465" x2="13.803" y1="13.967" y2="13.967" gradientTransform="translate(1.3197 -.28548)" gradientUnits="userSpaceOnUse" xlink:href="#swatch26"/>
 </defs>
 <metadata>
  <rdf:RDF>
   <cc:Work rdf:about="">
    <dc:format>image/svg+xml</dc:format>
    <dc:type rdf:resource="http://purl.org/dc/dcmitype/StillImage"/>
   </cc:Work>
  </rdf:RDF>
 </metadata>
 <path d="m13.769 13.91s-0.0088 0.0088-11.947 0.0079c-0.081557-8.8898-0.081557-8.8898-0.081557-8.8898" fill="#fff"/>
 <path d="m1.8367 14.02 11.934 0.02545" fill="#fff"/>
 <path d="m13.459 11.053-11.757 0.05622c-0.044138-9.0192-0.044138-9.0192-0.044138-9.0192l11.779-0.032376c-0.02501 9.1153 0.02231 8.9954 0.02231 8.9954z" fill="#f9f9f9" stroke="url(#linearGradient26)"/>
 <path d="m15.123 13.654-11.757 0.05622c-0.044138-9.0192-0.044138-9.0192-0.044138-9.0192l11.779-0.032376c-0.02501 9.1153 0.02231 8.9954 0.02231 8.9954z" fill="#f9f9f9" stroke="url(#linearGradient1)"/>
 <path d="m5.4803 6.4877 1.4714 4.9355s-0.031118 0.08535 0 0 0.031118-0.08535 0.031118-0.08535l2.7053-3.965" opacity="0" stroke-width="12.6"/>
 <path d="m6.0715 7.2098 1.4526 3.6953 5.5705-3.6854" fill="#f9f9f9" stroke="#000" stroke-dashoffset="117.16" stroke-width=".8"/>
</svg>
